Newaita-dark/apps/22/thunderbolt-symbolic.svg

<svg height="22" viewBox="0 0 22 22" width="22" xmlns="http://www.w3.org/2000/svg"><path d="m10.914062 1.992188c-4.785156 0-8.640624 3.851562-8.640624 8.640624 0 4.785157 3.855468 8.640626 8.640624 8.640626 4.789063 0 8.640626-3.855469 8.640626-8.640626 0-4.789062-3.851563-8.640624-8.640626-8.640624zm-.15625 2.273437h3.636719c.183594 0 .292969.207031.1875.355469l-3.847656 5.554687h1.84375c.179687 0 .289063.203125.1875.355469l-2.761719 4.140625.785156-.050781c.222657-.015625.328126.273437.148438.40625l-2.773438 2.078125c-.160156.117187-.382812-.011719-.359374-.210938l.410156-3.4375c.027344-.226562.328125-.277343.429687-.074219l.292969.59375 1.023438-2.433593h-1.476563c-.15625 0-.265625-.152344-.214844-.300781l2.273438-6.820313c.03125-.09375.117187-.15625.214843-.15625zm0 0" fill="#424242"/><path d="m10.914062 19.273438c-4.785156 0-8.640624-3.855469-8.640624-8.640626 0-.027343 0-.058593 0-.085937.046874 4.75 3.882812 8.558594 8.640624 8.558594 4.761719 0 8.597657-3.808594 8.640626-8.558594v.085937c0 4.785157-3.851563 8.640626-8.640626 8.640626zm0 0" fill-opacity=".196078"/></svg>

<?xml version="1.0" encoding="UTF-8"?>
<svg xmlns="http://www.w3.org/2000/svg" xmlns:xlink="http://www.w3.org/1999/xlink" width="22px" height="22px" viewBox="0 0 22 22" version="1.1">
<g id="surface1">
<path style=" stroke:none;fill-rule:nonzero;fill:rgb(25.882354%,25.882354%,25.882354%);fill-opacity:1;" d="M 10.914062 1.992188 C 6.128906 1.992188 2.273438 5.84375 2.273438 10.632812 C 2.273438 15.417969 6.128906 19.273438 10.914062 19.273438 C 15.703125 19.273438 19.554688 15.417969 19.554688 10.632812 C 19.554688 5.84375 15.703125 1.992188 10.914062 1.992188 Z M 10.757812 4.265625 L 14.394531 4.265625 C 14.578125 4.265625 14.6875 4.472656 14.582031 4.621094 L 10.734375 10.175781 L 12.578125 10.175781 C 12.757812 10.175781 12.867188 10.378906 12.765625 10.53125 L 10.003906 14.671875 L 10.789062 14.621094 C 11.011719 14.605469 11.117188 14.894531 10.9375 15.027344 L 8.164062 17.105469 C 8.003906 17.222656 7.78125 17.09375 7.804688 16.894531 L 8.214844 13.457031 C 8.242188 13.230469 8.542969 13.179688 8.644531 13.382812 L 8.9375 13.976562 L 9.960938 11.542969 L 8.484375 11.542969 C 8.328125 11.542969 8.21875 11.390625 8.269531 11.242188 L 10.542969 4.421875 C 10.574219 4.328125 10.660156 4.265625 10.757812 4.265625 Z M 10.757812 4.265625 "/>
<path style=" stroke:none;fill-rule:nonzero;fill:rgb(0%,0%,0%);fill-opacity:0.196078;" d="M 10.914062 19.273438 C 6.128906 19.273438 2.273438 15.417969 2.273438 10.632812 C 2.273438 10.605469 2.273438 10.574219 2.273438 10.546875 C 2.320312 15.296875 6.15625 19.105469 10.914062 19.105469 C 15.675781 19.105469 19.511719 15.296875 19.554688 10.546875 C 19.554688 10.574219 19.554688 10.605469 19.554688 10.632812 C 19.554688 15.417969 15.703125 19.273438 10.914062 19.273438 Z M 10.914062 19.273438 "/>
</g>
</svg>
